X: 658
T: Eskişehir Zeybeği
C: Osman Özdenkçi
O: Turkey
F: http://compmusic.upf.edu/node/140
N: muhayyer--zeybek--agiraksak--eskisehir--
N: makam= muhayyer
N: form= zeybek
N: usul= agiraksak = 9/4
M: 9/4
L: 1/16
K: C _2/4B ^3/4f  
Q: 1/4=78
%%MIDI tuningsystem comma53
g4 f3e .d4 .e4 .f4 g4 f2d2 e8  | {z}f2gg a2g2 .a4 d2dd e2f2 g4 f2d2 e8  | 
w:   |   | 
{z}d2da gafg e=fd2 c3B A4 B2c2 d4 A8  | \
w:   | 
{z}B2c2 d2c2 d4 G2GG A2B2 c4 B2G2 A8  | 
w:   | 
B2c2 d2c2 d4 z2GG A2B2 c4 B2G2 A8  | \
w:   | 
g4 f3e .d4 .e4 .f4 g4 f2d2 e8  | 
w:   | 
{z}f2gg a2g2 .a4 d2dd e2f2 g4 f2d2 e8  | \
w:   | 
{z}d2da gafg e=fd2 c3B A4 B2c2 d4 A8  | 
w:   | 
{z}B2c2 d2c2 d4 G2GG A2B2 c4 B2G2 A8  | \
w:   | 
B2c2 d2c2 d4 z2GG A2B2 c4 B2G2 A8  | 
w:   | 
g4 f3e .d4 .e4 .f4 g4 f2d2 e8  | {z}f2gg a2g2 .a4 d2dd e2f2 g4 f2d2 e8  | 
w:   |   | 
{z}d2da gafg e=fd2 c3B A4 B2c2 d4 A8  | \
w:   | 
{z}B2c2 d2c2 d4 G2GG A2B2 c4 B2G2 A8  | 
w:   | 
B2c2 d2c2 d4 z2GG A2B2 c4 B2G2 A8  | \
w:   | 
g4 f3e .d4 .e4 .f4 g4 f2d2 e8  | 
w:   | 
{z}f2gg a2g2 .a4 d2dd e2f2 g4 f2d2 e8  | \
w:   | 
{z}d2da gafg e=fd2 c3B A4 B2c2 d4 A8  | 
w:   | 
{z}B2c2 d2c2 d4 G2GG A2B2 c4 B2G2 A8  | \
w:   | 
B2c2 d2c2 d4 z2GG A2B2 c4 B2G2 A8  | 
w:   | 
|


